app/_assets/images/icons/icn-installation.svg

<svg height="64" preserveAspectRatio="xMidYMid" viewBox="0 0 64 64" width="64" xmlns="http://www.w3.org/2000/svg"><path d="m2 2h60v8h-60z" fill="#fff"/><path d="m2 10h60v52h-60z" fill="#e8f6ea"/><g fill-rule="evenodd"><path d="m2 60h60c0 1.105-.895 2-2 2h-56c-1.105 0-2-.895-2-2z" fill="#bfe5c6"/><path d="m60 64h-56c-2.209 0-4-1.791-4-4v-48-2-6c0-2.209 1.791-4 4-4h56c2.209 0 4 1.791 4 4v6 2 48c0 2.209-1.791 4-4 4zm2-60c0-1.105-.895-2-2-2h-56c-1.105 0-2 .895-2 2v6h60zm0 8h-60v48c0 1.105.895 2 2 2h56c1.105 0 2-.895 2-2zm-17 38h-8c-.552 0-1-.448-1-1s.448-1 1-1h8c.552 0 1 .448 1 1s-.448 1-1 1zm-8-8h2c.552 0 1 .448 1 1s-.448 1-1 1h-2c-.552 0-1-.448-1-1s.448-1 1-1zm8-10h-8c-.552 0-1-.448-1-1s.448-1 1-1h8c.552 0 1 .448 1 1s-.448 1-1 1zm-10-12h-12c-.552 0-1-.448-1-1s.448-1 1-1h12c.552 0 1 .448 1 1s-.448 1-1 1zm-9 5c0 .552-.448 1-1 1h-6c-.552 0-1-.448-1-1s.448-1 1-1h6c.552 0 1 .448 1 1zm-9-5h-8c-.552 0-1-.448-1-1s.448-1 1-1h8c.552 0 1 .448 1 1s-.448 1-1 1zm-8 4h4c.552 0 1 .448 1 1s-.448 1-1 1h-4c-.552 0-1-.448-1-1s.448-1 1-1zm0 6h12c.552 0 1 .448 1 1s-.448 1-1 1h-12c-.552 0-1-.448-1-1s.448-1 1-1zm0 6h6c.552 0 1 .448 1 1s-.448 1-1 1h-6c-.552 0-1-.448-1-1s.448-1 1-1zm0 6h10c.552 0 1 .448 1 1s-.448 1-1 1h-10c-.552 0-1-.448-1-1s.448-1 1-1zm0 6h12c.552 0 1 .448 1 1s-.448 1-1 1h-12c-.552 0-1-.448-1-1s.448-1 1-1zm16-10h-4c-.552 0-1-.448-1-1s.448-1 1-1h4c.552 0 1 .448 1 1s-.448 1-1 1zm2-8h4c.552 0 1 .448 1 1s-.448 1-1 1h-4c-.552 0-1-.448-1-1s.448-1 1-1zm-2 12h6c.552 0 1 .448 1 1s-.448 1-1 1h-6c-.552 0-1-.448-1-1s.448-1 1-1zm2 6h4c.552 0 1 .448 1 1s-.448 1-1 1h-4c-.552 0-1-.448-1-1s.448-1 1-1zm23-43c.552 0 1 .448 1 1s-.448 1-1 1-1-.448-1-1 .448-1 1-1zm4 0c.552 0 1 .448 1 1s-.448 1-1 1-1-.448-1-1 .448-1 1-1zm4 0c.552 0 1 .448 1 1s-.448 1-1 1-1-.448-1-1 .448-1 1-1z" fill="#40bb53"/></g></svg>

<svg xmlns="http://www.w3.org/2000/svg" xmlns:xlink="http://www.w3.org/1999/xlink" preserveAspectRatio="xMidYMid" width="64" height="64" viewBox="0 0 64 64">
  <defs>
    <style>

      .cls-3 {
        fill: #ffffff;
      }

      .cls-4 {
        fill: #e8f6ea;
      }

      .cls-5 {
        fill: #bfe5c6;
      }

      .cls-6 {
        fill: #40bb53;
      }
    </style>
  </defs>
  <g id="icn-installationsvg">
    <rect id="rect-1" class="cls-3" x="2" y="2" width="60" height="8"/>
    <rect id="rect-2" class="cls-4" x="2" y="10" width="60" height="52"/>
    <path d="M2.000,60.000 C2.000,60.000 62.000,60.000 62.000,60.000 C62.000,60.000 62.000,60.000 62.000,60.000 C62.000,61.105 61.105,62.000 60.000,62.000 C60.000,62.000 4.000,62.000 4.000,62.000 C2.895,62.000 2.000,61.105 2.000,60.000 C2.000,60.000 2.000,60.000 2.000,60.000 Z" id="path-1" class="cls-5" fill-rule="evenodd"/>
    <path d="M60.000,64.000 C60.000,64.000 4.000,64.000 4.000,64.000 C1.791,64.000 0.000,62.209 0.000,60.000 C0.000,60.000 0.000,12.000 0.000,12.000 C0.000,12.000 0.000,10.000 0.000,10.000 C0.000,10.000 0.000,4.000 0.000,4.000 C0.000,1.791 1.791,-0.000 4.000,-0.000 C4.000,-0.000 60.000,-0.000 60.000,-0.000 C62.209,-0.000 64.000,1.791 64.000,4.000 C64.000,4.000 64.000,10.000 64.000,10.000 C64.000,10.000 64.000,12.000 64.000,12.000 C64.000,12.000 64.000,60.000 64.000,60.000 C64.000,62.209 62.209,64.000 60.000,64.000 ZM62.000,4.000 C62.000,2.895 61.105,2.000 60.000,2.000 C60.000,2.000 4.000,2.000 4.000,2.000 C2.895,2.000 2.000,2.895 2.000,4.000 C2.000,4.000 2.000,10.000 2.000,10.000 C2.000,10.000 62.000,10.000 62.000,10.000 C62.000,10.000 62.000,4.000 62.000,4.000 ZM62.000,12.000 C62.000,12.000 2.000,12.000 2.000,12.000 C2.000,12.000 2.000,60.000 2.000,60.000 C2.000,61.105 2.895,62.000 4.000,62.000 C4.000,62.000 60.000,62.000 60.000,62.000 C61.105,62.000 62.000,61.105 62.000,60.000 C62.000,60.000 62.000,12.000 62.000,12.000 ZM45.000,50.000 C45.000,50.000 37.000,50.000 37.000,50.000 C36.448,50.000 36.000,49.552 36.000,49.000 C36.000,48.448 36.448,48.000 37.000,48.000 C37.000,48.000 45.000,48.000 45.000,48.000 C45.552,48.000 46.000,48.448 46.000,49.000 C46.000,49.552 45.552,50.000 45.000,50.000 ZM37.000,42.000 C37.000,42.000 39.000,42.000 39.000,42.000 C39.552,42.000 40.000,42.448 40.000,43.000 C40.000,43.552 39.552,44.000 39.000,44.000 C39.000,44.000 37.000,44.000 37.000,44.000 C36.448,44.000 36.000,43.552 36.000,43.000 C36.000,42.448 36.448,42.000 37.000,42.000 ZM45.000,32.000 C45.000,32.000 37.000,32.000 37.000,32.000 C36.448,32.000 36.000,31.552 36.000,31.000 C36.000,30.448 36.448,30.000 37.000,30.000 C37.000,30.000 45.000,30.000 45.000,30.000 C45.552,30.000 46.000,30.448 46.000,31.000 C46.000,31.552 45.552,32.000 45.000,32.000 ZM35.000,20.000 C35.000,20.000 23.000,20.000 23.000,20.000 C22.448,20.000 22.000,19.552 22.000,19.000 C22.000,18.448 22.448,18.000 23.000,18.000 C23.000,18.000 35.000,18.000 35.000,18.000 C35.552,18.000 36.000,18.448 36.000,19.000 C36.000,19.552 35.552,20.000 35.000,20.000 ZM26.000,25.000 C26.000,25.552 25.552,26.000 25.000,26.000 C25.000,26.000 19.000,26.000 19.000,26.000 C18.448,26.000 18.000,25.552 18.000,25.000 C18.000,24.448 18.448,24.000 19.000,24.000 C19.000,24.000 25.000,24.000 25.000,24.000 C25.552,24.000 26.000,24.448 26.000,25.000 ZM17.000,20.000 C17.000,20.000 9.000,20.000 9.000,20.000 C8.448,20.000 8.000,19.552 8.000,19.000 C8.000,18.448 8.448,18.000 9.000,18.000 C9.000,18.000 17.000,18.000 17.000,18.000 C17.552,18.000 18.000,18.448 18.000,19.000 C18.000,19.552 17.552,20.000 17.000,20.000 ZM9.000,24.000 C9.000,24.000 13.000,24.000 13.000,24.000 C13.552,24.000 14.000,24.448 14.000,25.000 C14.000,25.552 13.552,26.000 13.000,26.000 C13.000,26.000 9.000,26.000 9.000,26.000 C8.448,26.000 8.000,25.552 8.000,25.000 C8.000,24.448 8.448,24.000 9.000,24.000 ZM9.000,30.000 C9.000,30.000 21.000,30.000 21.000,30.000 C21.552,30.000 22.000,30.448 22.000,31.000 C22.000,31.552 21.552,32.000 21.000,32.000 C21.000,32.000 9.000,32.000 9.000,32.000 C8.448,32.000 8.000,31.552 8.000,31.000 C8.000,30.448 8.448,30.000 9.000,30.000 ZM9.000,36.000 C9.000,36.000 15.000,36.000 15.000,36.000 C15.552,36.000 16.000,36.448 16.000,37.000 C16.000,37.552 15.552,38.000 15.000,38.000 C15.000,38.000 9.000,38.000 9.000,38.000 C8.448,38.000 8.000,37.552 8.000,37.000 C8.000,36.448 8.448,36.000 9.000,36.000 ZM9.000,42.000 C9.000,42.000 19.000,42.000 19.000,42.000 C19.552,42.000 20.000,42.448 20.000,43.000 C20.000,43.552 19.552,44.000 19.000,44.000 C19.000,44.000 9.000,44.000 9.000,44.000 C8.448,44.000 8.000,43.552 8.000,43.000 C8.000,42.448 8.448,42.000 9.000,42.000 ZM9.000,48.000 C9.000,48.000 21.000,48.000 21.000,48.000 C21.552,48.000 22.000,48.448 22.000,49.000 C22.000,49.552 21.552,50.000 21.000,50.000 C21.000,50.000 9.000,50.000 9.000,50.000 C8.448,50.000 8.000,49.552 8.000,49.000 C8.000,48.448 8.448,48.000 9.000,48.000 ZM25.000,38.000 C25.000,38.000 21.000,38.000 21.000,38.000 C20.448,38.000 20.000,37.552 20.000,37.000 C20.000,36.448 20.448,36.000 21.000,36.000 C21.000,36.000 25.000,36.000 25.000,36.000 C25.552,36.000 26.000,36.448 26.000,37.000 C26.000,37.552 25.552,38.000 25.000,38.000 ZM27.000,30.000 C27.000,30.000 31.000,30.000 31.000,30.000 C31.552,30.000 32.000,30.448 32.000,31.000 C32.000,31.552 31.552,32.000 31.000,32.000 C31.000,32.000 27.000,32.000 27.000,32.000 C26.448,32.000 26.000,31.552 26.000,31.000 C26.000,30.448 26.448,30.000 27.000,30.000 ZM25.000,42.000 C25.000,42.000 31.000,42.000 31.000,42.000 C31.552,42.000 32.000,42.448 32.000,43.000 C32.000,43.552 31.552,44.000 31.000,44.000 C31.000,44.000 25.000,44.000 25.000,44.000 C24.448,44.000 24.000,43.552 24.000,43.000 C24.000,42.448 24.448,42.000 25.000,42.000 ZM27.000,48.000 C27.000,48.000 31.000,48.000 31.000,48.000 C31.552,48.000 32.000,48.448 32.000,49.000 C32.000,49.552 31.552,50.000 31.000,50.000 C31.000,50.000 27.000,50.000 27.000,50.000 C26.448,50.000 26.000,49.552 26.000,49.000 C26.000,48.448 26.448,48.000 27.000,48.000 ZM50.000,5.000 C50.552,5.000 51.000,5.448 51.000,6.000 C51.000,6.552 50.552,7.000 50.000,7.000 C49.448,7.000 49.000,6.552 49.000,6.000 C49.000,5.448 49.448,5.000 50.000,5.000 ZM54.000,5.000 C54.552,5.000 55.000,5.448 55.000,6.000 C55.000,6.552 54.552,7.000 54.000,7.000 C53.448,7.000 53.000,6.552 53.000,6.000 C53.000,5.448 53.448,5.000 54.000,5.000 ZM58.000,5.000 C58.552,5.000 59.000,5.448 59.000,6.000 C59.000,6.552 58.552,7.000 58.000,7.000 C57.448,7.000 57.000,6.552 57.000,6.000 C57.000,5.448 57.448,5.000 58.000,5.000 Z" id="path-2" class="cls-6" fill-rule="evenodd"/>
  </g>
</svg>
